packages/swarm-icons/src/icons/line/Notifs Off.svg

<svg xmlns="http://www.w3.org/2000/svg" width="24" height="24" viewBox="0 0 24 24">
  <path fill="#757575" d="M16.4921387,6.80075455 C15.7623989,6.10220729 14.8659351,5.56926741 13.8573752,5.26910531 L13.5,5.16274525 L13.5,4.5 C13.5,3.67157288 12.8284271,3 12,3 C11.1715729,3 10.5,3.67157288 10.5,4.5 L10.5,5.16274525 L10.1426248,5.26910531 C7.40980302,6.08243285 5.5,8.60483389 5.5,11.5 L5.5,15.5 C5.5,16.442809 4.94280904,17 4,17 C3.72385763,17 3.5,17.2238576 3.5,17.5 L3.5,18.5 C3.5,18.7761424 3.72385763,19 4,19 L4.29289322,19 L16.4921387,6.80075455 Z M3.41236864,19.8805246 C2.876,19.6519235 2.5,19.1198715 2.5,18.5 L2.5,17.5 C2.5,16.6715729 3.17157288,16 4,16 C4.39052429,16 4.5,15.8905243 4.5,15.5 L4.5,11.5 C4.5,8.28670282 6.53862552,5.47172536 9.50106119,4.42644981 C9.53996966,3.07975681 10.6438895,2 12,2 C13.3561105,2 14.4600303,3.07975681 14.4989388,4.42644981 C15.5254778,4.78865721 16.4410902,5.36336181 17.1993905,6.09350276 L19.1464466,4.14644661 C19.3417088,3.95118446 19.6582912,3.95118446 19.8535534,4.14644661 C20.0488155,4.34170876 20.0488155,4.65829124 19.8535534,4.85355339 L2.85355339,21.8535534 C2.65829124,22.0488155 2.34170876,22.0488155 2.14644661,21.8535534 C1.95118446,21.6582912 1.95118446,21.3417088 2.14644661,21.1464466 L3.41236864,19.8805246 Z M18.5579002,7.85944731 C19.1607391,8.94461077 19.5,10.1891619 19.5,11.5 L19.5,15.5 C19.5,15.8905243 19.6094757,16 20,16 C20.8284271,16 21.5,16.6715729 21.5,17.5 L21.5,18.5 C21.5,19.3284271 20.8284271,20 20,20 L6.46331884,20 L7.45953225,19 L20,19 C20.2761424,19 20.5,18.7761424 20.5,18.5 L20.5,17.5 C20.5,17.2238576 20.2761424,17 20,17 C19.057191,17 18.5,16.442809 18.5,15.5 L18.5,11.5 C18.5,10.4659838 18.2563893,9.47951671 17.8186793,8.60147794 L18.5579002,7.85944731 Z M9.5,21 L14.5,21 C14.7761424,21 15,21.2238576 15,21.5 C15,21.7761424 14.7761424,22 14.5,22 L9.5,22 C9.22385763,22 9,21.7761424 9,21.5 C9,21.2238576 9.22385763,21 9.5,21 Z"/>
</svg>

<svg xmlns="http://www.w3.org/2000/svg" width="24" height="24"><path fill="#757575" d="M16.492 6.8a6.48 6.48 0 00-2.635-1.53l-.357-.107V4.5a1.5 1.5 0 00-3 0v.663l-.357.106A6.503 6.503 0 005.5 11.5v4c0 .943-.557 1.5-1.5 1.5a.5.5 0 00-.5.5v1a.5.5 0 00.5.5h.293l12.2-12.2zM3.412 19.88A1.5 1.5 0 012.5 18.5v-1A1.5 1.5 0 014 16c.39 0 .5-.11.5-.5v-4a7.503 7.503 0 015.001-7.074 2.5 2.5 0 014.998 0 7.48 7.48 0 012.7 1.668l1.947-1.948a.5.5 0 01.708.708l-17 17a.5.5 0 01-.708-.708l1.266-1.265zM18.558 7.86a7.482 7.482 0 01.942 3.64v4c0 .39.11.5.5.5a1.5 1.5 0 011.5 1.5v1A1.5 1.5 0 0120 20H6.463l.997-1H20a.5.5 0 00.5-.5v-1a.5.5 0 00-.5-.5c-.943 0-1.5-.557-1.5-1.5v-4c0-1.034-.244-2.02-.681-2.899l.739-.742zM9.5 21h5a.5.5 0 110 1h-5a.5.5 0 110-1z"/></svg>
